svgs/sharp-regular/arrow-down-triangle-square.svg

<svg xmlns="http://www.w3.org/2000/svg" viewBox="0 0 576 512"><!--! Font Awesome Pro 6.6.0 by @fontawesome - https://fontawesome.com License - https://fontawesome.com/license (Commercial License) Copyright 2024 Fonticons, Inc. --><path d="M160 478.7l-17-17-96-96-17-17L64 314.9l17 17 55 55L136 56l0-24 48 0 0 24 0 330.9 55-55 17-17 33.9 33.9-17 17-96 96-17 17zM296 224l30-48 61.7-98.7L416 32l28.3 45.3L506 176l30 48-56.6 0-126.8 0L296 224zm86.6-48l66.8 0L416 122.6 382.6 176zM368 432l96 0 0-96-96 0 0 96zM320 288l48 0 96 0 48 0 0 48 0 96 0 48-48 0-96 0-48 0 0-48 0-96 0-48z"/></svg>

<svg xmlns="http://www.w3.org/2000/svg" viewBox="0 0 576 512"><!--! Font Awesome Pro 6.4.2 by @fontawesome - https://fontawesome.com License - https://fontawesome.com/license (Commercial License) Copyright 2023 Fonticons, Inc. --><path d="M160 478.7l-17-17-96-96-17-17L64 314.9l17 17 55 55V56 32h48V56 386.9l55-55 17-17 33.9 33.9-17 17-96 96-17 17zM296 224l30-48 61.7-98.7L416 32l28.3 45.3L506 176l30 48H479.4 352.6 296zm86.6-48h66.8L416 122.6 382.6 176zM368 432h96V336H368v96zM320 288h48 96 48v48 96 48H464 368 320V432 336 288z"/></svg>
